X:2409
T:Ushag veg ruy 
C:Collected by P W Cain, Douglas 
C:Traditional
O:Isle of Man
N:See KV 401
Z:Kiaull Vannin 409 
L:1/4
M:3/4 
Q:100 
K:D 
F B B|B B B|f2 f|c3|d2 d|B3|c2 c|A3| 
F B B|B B B|f2 f|c2 c|d2 d|(cB) A|(B3|B3)|| 

